X:185
T: Curlews (The)
C: Josephine Keegan
Z: B.Black
R: Reel
M: 4/4
L: 1/8
K: Bm
fBB2 Bcde | fece a3e | faed cAA2 | cAce a2ba |
fBB2 Bcde | fece a3f | g3e f3e | dcBA FBB2 :|
Bdcd BFF2 | DFF2 Bcdf | ecBc AEE2 | CEE2 defe |
Bdcd BFF2 | DFF2 Bcdf | d2cd fdec | dcBA FBB2 :|
